X: 718
T: Renben qiangdao zhan liaoxian
%%abc-version 2.0
%%abcx-abcm2ps-target-version 5.9.1 (29 Sep 2008)
%%abc-creator hum2abc beta
%%abcx-conversion-date 2013/10/02 07:52:30
%%abc-edited-by Helmut Schaffrath
%%humdrum-veritas 1085152720
%%humdrum-veritas-data 4025770197
%%continueall 1
%%barnumbers 0
L: 1/8
M: 2/4
K: G
e d B B [I:setbarnb 1]| 
e dB2 | 
B g e d | 
G> AB2 | 
e d e d | 
B AG2 | 
B d A G | 
E> DE2 | 
G AB2 | 
d> B A G | 
E> DE2 |]  



